icons/desktop/16/svg/local-network-16.svg

<svg width="16" height="16" viewBox="0 0 16 16" fill="none" xmlns="http://www.w3.org/2000/svg">
<path d="M5 10C5.55228 10 6 10.4477 6 11C6 11.5523 5.55228 12 5 12C4.44772 12 4 11.5523 4 11C4 10.4477 4.44772 10 5 10Z" fill="black"/>
<path d="M8.25 10C8.80228 10 9.25 10.4477 9.25 11C9.25 11.5523 8.80228 12 8.25 12C7.69772 12 7.25 11.5523 7.25 11C7.25 10.4477 7.69772 10 8.25 10Z" fill="black"/>
<path fill-rule="evenodd" clip-rule="evenodd" d="M13.25 3C13.664 3 14 3.336 14 3.75V7.16504C14.0443 7.16769 14.0886 7.17014 14.1328 7.17285C15.1955 7.23916 15.9999 8.12544 16 9.1709V12.8281C15.9999 13.8823 15.1762 14.7649 14.1201 14.8291C12.1485 14.949 10.2714 15 8.5 15C6.52592 15 4.64465 14.936 2.86719 14.8271C1.80377 14.7608 1.00006 13.8728 1 12.8281V9.17188C1.00007 8.11768 1.82383 7.2351 2.87988 7.1709C4.85155 7.05096 6.72863 7 8.5 7C9.87994 7 11.2145 7.03188 12.5 7.08789V3.75C12.5 3.336 12.836 3 13.25 3ZM8.5 8.5C6.75755 8.5 4.91082 8.55091 2.9707 8.66895C2.71084 8.68474 2.50007 8.90618 2.5 9.17188V12.8281C2.50006 13.1013 2.70754 13.3144 2.95996 13.3301C4.70847 13.4372 6.55812 13.5 8.5 13.5C10.2424 13.5 12.0892 13.4491 14.0293 13.3311C14.2892 13.3153 14.4999 13.0938 14.5 12.8281V9.1709C14.4999 8.89851 14.2932 8.6857 14.04 8.66992C12.2918 8.56285 10.4415 8.5 8.5 8.5Z" fill="black"/>
<path d="M5.49902 2.74902C6.08398 2.74903 6.63401 2.88887 7.12598 3.13184C7.44387 3.28878 7.49711 3.7249 7.23242 3.95996L6.16309 4.90918C5.78411 5.24614 5.21298 5.2461 4.83398 4.90918L3.76562 3.95996C3.50189 3.72391 3.55516 3.28879 3.87207 3.13184C4.36403 2.88888 4.91408 2.74902 5.49902 2.74902Z" fill="black"/>
<path d="M5.5 0C6.81767 3.55825e-05 8.04098 0.391652 9.06445 1.06445C9.41048 1.29195 9.50665 1.75645 9.2793 2.10254C9.05176 2.44853 8.58728 2.54479 8.24121 2.31738C7.45487 1.80043 6.51599 1.50004 5.5 1.5C4.48447 1.50004 3.54156 1.8022 2.75293 2.32129C2.40696 2.54884 1.94156 2.45334 1.71387 2.10742C1.48638 1.7615 1.58291 1.29607 1.92871 1.06836C2.95394 0.393606 4.18177 3.64422e-05 5.5 0Z" fill="black"/>
</svg>

<!-- This Source Code Form is subject to the terms of the Mozilla Public
   - License, v. 2.0. If a copy of the MPL was not distributed with this
   - file, You can obtain one at http://mozilla.org/MPL/2.0/. -->
<svg xmlns="http://www.w3.org/2000/svg" width="16" height="16" fill="context-fill" fill-opacity="context-fill-opacity" viewBox="0 0 16 16">
    <path d="M5 10a1 1 0 1 1 0 2 1 1 0 0 1 0-2M8.25 10a1 1 0 1 1 0 2 1 1 0 0 1 0-2" />
    <path fill-rule="evenodd" d="M13.25 3a.75.75 0 0 1 .75.75v3.415l.133.008A1.996 1.996 0 0 1 16 9.17v3.657a2.007 2.007 0 0 1-1.88 2.001 93 93 0 0 1-11.253-.002A1.997 1.997 0 0 1 1 12.828V9.172c0-1.054.824-1.937 1.88-2.001a93 93 0 0 1 9.62-.083V3.75a.75.75 0 0 1 .75-.75M8.5 8.5c-1.742 0-3.59.05-5.53.169a.506.506 0 0 0-.47.503v3.656c0 .273.208.486.46.502a91 91 0 0 0 11.07.001.506.506 0 0 0 .47-.503V9.171a.496.496 0 0 0-.46-.501A91 91 0 0 0 8.5 8.5" clip-rule="evenodd" />
    <path d="M5.499 2.749c.585 0 1.135.14 1.627.383a.506.506 0 0 1 .106.828l-1.069.95a1 1 0 0 1-1.329 0l-1.068-.95a.506.506 0 0 1 .106-.828A3.66 3.66 0 0 1 5.5 2.749M5.5 0c1.318 0 2.541.392 3.564 1.064a.75.75 0 1 1-.823 1.253A4.97 4.97 0 0 0 5.5 1.5a4.98 4.98 0 0 0-2.747.821.75.75 0 1 1-.824-1.253A6.48 6.48 0 0 1 5.5 0" />
</svg>
